X: 9
T: Jenny Dang The Weaver
R: reel
M: 4/4
L: 1/8
K: Dmaj
|B2 (3BcB B2dB | ABde (3gfe dB | A2 (3AcA A2dB | ABdf gfec |
eB~B2 ~B2dB | ABdf (3gfe dc | eA~A2 ~A2 dB | ABdf gfec |
|:d2fd ef (3gfe | defd ~g2fe | d2fd edfd | eaaf ~g3fe |
d2fd ef (3gfe | defd ~g3a | bgaf gfec | (3Bcd ef g2 dc |


Tune 380	Setting 23195

